packages/core/src/svgs/snc.svg

<svg width="24" height="24" viewBox="0 0 24 24" fill="none" xmlns="http://www.w3.org/2000/svg">
<g clip-path="url(#clip0_31_18931)">
<path d="M0 0H24V24H0V0Z" fill="url(#paint0_linear_31_18931)"/>
<path d="M5.0615 15.8569L4.71436 17.1426C5.98721 17.1426 6.33864 17.0612 6.80578 16.7398C7.27721 16.4184 7.64578 15.5869 7.77436 15.2141L9.25721 9.41122C9.33007 9.0555 9.57007 8.13836 9.85721 8.1255C10.1444 8.11693 10.3286 8.88836 10.4058 9.15408L11.7344 14.1426C12.0344 15.1455 12.4929 17.1469 14.1772 17.1469C15.8658 17.1469 16.5172 14.3784 16.8515 12.8612H18.6858L19.0801 11.5755H17.4944L17.1515 11.7898C17.3529 11.0441 17.8972 9.07265 18.0815 8.59265C18.2658 8.11265 18.7672 8.09122 18.9901 8.14693L19.2858 6.86122H18.0086C16.9329 6.86122 16.2944 8.42122 16.0844 9.15836L14.7001 14.6655C14.6229 14.9655 14.4001 15.8569 14.1429 15.8569C13.8858 15.8569 13.7315 15.2141 13.6372 14.9355L12.6515 11.1384C12.3429 9.76693 11.7344 6.85693 9.85721 6.85693C8.21578 6.85693 7.40578 9.69408 7.05864 11.5712H5.2115L4.90293 12.8569H6.5315L6.81007 12.6941C6.30436 15.0212 5.97436 15.4455 5.77721 15.6555C5.61436 15.8269 5.23721 15.8612 5.06578 15.8569H5.0615Z" fill="white"/>
</g>
<defs>
<linearGradient id="paint0_linear_31_18931" x1="4.46571" y1="4.16143" x2="29.2071" y2="32.58" gradientUnits="userSpaceOnUse">
<stop stop-color="#1A1E21"/>
<stop offset="1" stop-color="#06060A"/>
</linearGradient>
<clipPath id="clip0_31_18931">
<rect width="24" height="24" fill="white"/>
</clipPath>
</defs>
</svg>

<svg xmlns="http://www.w3.org/2000/svg" width="24" height="24" fill="none" viewBox="0 0 24 24"><g clip-path="url(#a)"><path fill="url(#b)" d="M0 0h24v24H0z"/><path fill="#fff" d="m5.062 15.857-.348 1.286c1.273 0 1.625-.082 2.092-.403.471-.322.84-1.153.968-1.526l1.483-5.803c.073-.355.313-1.273.6-1.285.287-.01.472.762.549 1.028l1.328 4.989c.3 1.002.759 3.004 2.443 3.004 1.689 0 2.34-2.769 2.675-4.286h1.834l.394-1.286h-1.586l-.343.215c.202-.746.746-2.717.93-3.197s.686-.502.91-.446l.295-1.286h-1.277c-1.076 0-1.715 1.56-1.925 2.297L14.7 14.666c-.077.3-.3 1.19-.557 1.19s-.412-.642-.506-.92l-.985-3.798c-.31-1.371-.918-4.281-2.795-4.281-1.641 0-2.451 2.837-2.798 4.714H5.21l-.308 1.286h1.629l.278-.163c-.506 2.327-.836 2.751-1.033 2.961-.163.172-.54.206-.711.202z"/></g><defs><linearGradient id="b" x1="4.466" x2="29.207" y1="4.161" y2="32.58" gradientUnits="userSpaceOnUse"><stop stop-color="#1A1E21"/><stop offset="1" stop-color="#06060A"/></linearGradient><clipPath id="a"><path fill="#fff" d="M0 0h24v24H0z"/></clipPath></defs></svg>
